src/16/actions/document-edit.svg

<svg xmlns="http://www.w3.org/2000/svg" viewBox="0 0 16 16">
  <defs id="defs3051">
    <style type="text/css" id="current-color-scheme">
      .ColorScheme-Text {
        color:#5d656b;
      }
      </style>
  </defs>
 <path style="fill:currentColor;fill-opacity:1;stroke:none" 
     d="M 10.398438 2 L 5.2871094 7.1113281 L 2 10.398438 L 2 14 L 5.6015625 14 L 14 5.6015625 L 10.398438 2 z M 8.3496094 5.4902344 L 10.509766 7.6503906 L 7.3359375 10.826172 L 7.3359375 10.150391 L 6.3222656 10.171875 L 5.2871094 10.171875 L 5.2871094 9.1367188 L 5.2871094 8.5507812 L 6.7285156 7.1113281 L 8.3496094 5.4902344 z M 4.2734375 9.5644531 L 4.2734375 11.185547 L 5.3085938 11.185547 L 6.3007812 11.185547 L 6.3222656 11.837891 L 5.2421875 12.919922 L 3.8007812 12.919922 L 3.0800781 12.199219 L 3.0800781 10.757812 L 4.2734375 9.5644531 z "
     class="ColorScheme-Text"
     />
</svg>

<svg xmlns="http://www.w3.org/2000/svg" viewBox="0 0 16 16"><path d="M10.398 2l-5.11 5.111L2 10.398V14h3.602L14 5.602 10.398 2zM8.35 5.49l2.16 2.16-3.174 3.176v-.676l-1.014.022H5.287V8.55L6.73 7.11l1.62-1.62zM4.273 9.564v1.622h2.028l.021.652-1.08 1.082H3.801l-.72-.72v-1.442l1.192-1.194z" fill="currentColor" color="#5d656b"/></svg>
